assets/symbols/mulberry/table.svg

<svg height="850.394" viewBox="0 0 850.394 850.394" width="850.394" xmlns="http://www.w3.org/2000/svg"><g fill="#9e5c26"><path d="m680.66 764.9v-428.14h-520.94v428.14h-56.18l.46-514.22h632l.83 514.22z"/><path d="m654.75 87.01 88.35 163.67h-643.69l95.14-163.67zm-80.59 254.28h47.57v165.37h-47.57zm-355.93-.28h47.57v165.37h-47.57z"/></g><g fill="none"><g stroke="#231f20" stroke-width="21"><path d="m104 250.68h-4.59l95.14-163.67h460.2l88.35 163.67h-7.1z"/><path d="m736 250v.68l.83 514.22h-56.17v-428.14h-520.94v428.14h-56.18l.46-514.22v-.68"/><path d="m218.23 341.01h47.57v165.37h-47.57zm355.93.28h47.57v165.37h-47.57z"/></g><path d="m0 0h850.394v850.394h-850.394z"/></g></svg>

<svg xmlns="http://www.w3.org/2000/svg" width="850.394" height="850.394" viewBox="0 0 850.394 850.394" overflow="visible"><g fill="#9e5c26"><path d="M680.66 764.9V336.76H159.72V764.9h-56.18l.46-514.22h632l.83 514.22z"/><path d="M654.75 87.01l88.35 163.67H99.41l95.14-163.67zM574.16 341.29h47.57v165.37h-47.57zM218.23 341.01h47.57v165.37h-47.57z"/></g><g fill="none" stroke="#231f20" stroke-width="21"><path d="M104 250.68h-4.59l95.14-163.67h460.2l88.35 163.67H736z"/><path d="M736 250v.68l.83 514.22h-56.17V336.76H159.72V764.9h-56.18l.46-514.22V250"/><path d="M218.23 341.01h47.57v165.37h-47.57zM574.16 341.29h47.57v165.37h-47.57z"/></g><path fill="none" d="M0 0h850.394v850.394H0z"/></svg>
